X:782
T:Saint Patrick's day
R:Jig
O:Ireland
B:RSCDS 3-3 (?)
B:NE Fiddler's Repertoire
B:Gow's Repository (?)
S:My arrangement from various sources
Z:Transcription, arrangement, chords:Mike Long
M:6/8
L:1/8
K:G
D|\
"G"GAG GBc|"D"ded dBG|"Am"AGA BGD|"C"EFE E2D|\
"G"GAG GBc|"D"ded dBG|
"Am"AGA BGD|"C"E2F "G"G2:|\
|:d| \
"G"def "(Em)"g2e|"D"f2d "C"edB|"G"def "(Em)"gag|
"D"fed "C"e2d|\
"G"def "(Em)"g2e|"D"f2d "C"edB|"G"def "(Em)"gag|[1 "D"fed "C"e2:|[2 "D"fed "C"efg|]
